X:1
T:L'anneau tombé dans l'eau
T:L'enlèvement en mer
A:Valle d'Aosta
B:Julien Tiersot, Chansons populaires recueillies dans les Alpes francaises, Grenoble Moutiers, 1903
C:trad.
O:Italia
N:Raccolto da Julien Tiersot e Joseph-Siméon Favre
Z:Gian Mario Navillod
Q:1/4=130
V:1
M:6/8
L:1/8
K:G
D |(GA) B (AB) c |(B2A) G2 B |(AB) A (DE) F |
w:La bel_ le se_ pro mè_ ne Le long_ de son_ jar 
(G3G) z z :|G |B2 A (Bd) d |d c B B A G |
w:din *Le long de son_ jar din, Sur le bord de la 
(B3B2) (c/B/) |(A3A) z G |B2 A (Bd) d |d c B (AB) A |
w:Fran_ **ce,_ Le long de son_ jar din. Sur le bord_ de 
G A B d B A |(G3G) z z |]
w:l'eau, Tout au près du vais seau. *
     %End of file

